!!!OTL: TRUTZ NIT SO
!!!ARE: Europa, Mitteleuropa, Deutschland, France, Elsass
!!!SCT: E0614
!!!YEM: Copyright 1995, estate of Helmut Schaffrath.
**kern
*ICvox
*Ivox
*M2/4
*k[b-]
*F:
=1
{8cc
8cc
8.cc
16b-
=2
8a
8a
8.a
16g}
=3
{8f
8a
8.dd
16cc
=4
8cc
8b-
4b-}
=5
{8b-
8b-
8.b-
16a
=6
8g
8g
8.g
16f}
=7
{8e
8g
8.cc
16b-
=8
8b-
8a
4a}
==
!!!AGN: Liebes - Lied
!!!ONB: ESAC (Essen Associative Code) Database: ERK1
!!!AMT: simple duple
!!!AIN: vox
!!!EED: Helmut Schaffrath
!!!EEV: 1.0
*-
